X: 42310
T: Wedding Videographer, The
R: reel
M: 4/4
K: Gmajor
DB,|:G,B, ~B,2 DB, ~B,|G,B,DG AcBA|G2 Bd gaba|g2 dg bage|
dBBA BAGE|DB, ~B,2 G,B,DG|BddB AGED|1 CB,A,C B,G,G,A,:|2 CDEF GABA||
G3 B dGBd|ec ~c2 GcEF|G3 B dGAB|cgfe dcBA|
BGGF G3B|AE ~E2 GDB,D|GABA GAFG|1 AGFA BGGA:|2 AGFA GEDB,||

